packages/ui-icons/src/Basic/16/Health_16.svg

<svg xmlns="http://www.w3.org/2000/svg" viewBox="0 0 20 20"><path d="M13 18H7v-5H2V7h5V2h6v5h5v6h-5Zm-5-1h4v-5h5V8h-5V3H8v5H3v4h5Z"/></svg>

<svg id="ready" xmlns="http://www.w3.org/2000/svg" viewBox="0 0 20 20"><title>Megaicons_work_16_1.8_cp</title><path d="M13,18H7V13H2V7H7V2h6V7h5v6H13ZM8,17h4V12h5V8H12V3H8V8H3v4H8Z"/></svg>
